!!!!SEGMENT: pl-sa--372-a-viii-12--002_anonim--plancti-noc-nastaje.krn
!!!cenid: 17xx:1708
!!!COM: Anonim
!!!COM-rismID: pe30004985
!!!CDT:
!!!CNT:
!!!GTL: Plancti
!!!OTL: Noc nastaje
!!!PDT:
!!!AGN:
!!!SMS-siglum: PL-SA
!!!SMS-shelfmark: 372/A VIII 12
!!!SMS-shelfwork: 002 G
!!!SMS-variant:
!!!SMS-altvar:
!!!NIFC-rismSourceID: 1001041678
!!!NIFC-islandoraID:
!!!URL-pdf-islandora:
!!!URL-scan: https://bc.bdsandomierz.pl/dlibra/publication/1676/edition/1644/content @EN{Scan on Cyfrowa Biblioteka Diecezjalna w Sandomierzu} @PL{Skany w portalu Cyfrowa Biblioteka Diecezjalna w Sandomierzu}
!!!ONB-nifc: UWAGA: Planctus Drugi
!!!AIN: 1 organ 1 soprn 1 tenor 2 violn
!!!key: c
**kern	**fba	**kern	**kern	**kern	**text	**text	**text	**text	**kern	**text	**text	**text	**text	**text	**text
*part5	*	*part4	*part3	*part2	*part2	*part2	*part2	*part2	*part1	*part1	*part1	*part1	*part1	*part1	*part1
*group3	*	*group2	*group2	*group1	*group1	*group1	*group1	*group1	*group1	*group1	*group1	*group1	*group1	*group1	*group1
*staff5	*	*staff4	*staff3	*staff2	*staff2	*staff2	*staff2	*staff2	*staff1	*staff1	*staff1	*staff1	*staff1	*staff1	*staff1
*I"[Organo]	*	*I"Violino 2do	*I"Violino 1mo.	*I"Tenore 1mo.	*	*	*	*	*I"Canto 1mo.	*	*	*	*	*	*
*I'[org]	*	*I'vl 2	*I'vl 1	*I'T 1	*	*	*	*	*I'S 1	*	*	*	*	*	*
*Iorgan	*	*Ivioln	*Ivioln	*Itenor	*	*	*	*	*Isoprn	*	*	*	*	*	*
*ICklav	*	*ICstr	*ICstr	*ICvox	*	*	*	*	*ICvox	*	*	*	*	*	*
*clefF4	*	*clefG2	*clefG2	*clefC4	*	*	*	*	*clefG2	*	*	*	*	*	*
*k[b-e-]	*	*k[b-e-]	*k[e-b-]	*k[b-]	*	*	*	*	*k[b-e-]	*	*	*	*	*	*
*c:	*	*c:	*c:	*c:	*	*	*	*	*c:	*	*	*	*	*	*
*M2/2	*	*M2/2	*M2/2	*M2/2	*	*	*	*	*M2/2	*	*	*	*	*	*
*met(c|)	*	*met(c|)	*met(c|)	*met(c|)	*	*	*	*	*met(c|)	*	*	*	*	*	*
=1	=1	=1	=1	=1	=1	=1	=1	=1	=1	=1	=1	=1	=1	=1	=1
*2\right	*	*2\right	*2\right	*2\right	*	*	*	*	*2\right	*	*	*	*	*	*
!!LO:TX:t=P:problem:Drogi Humdrumowiczu. Niby nietrudny utwór, ale zagmatwany. W organach jest spory problem w taktach 71-74.\n Dałem tam puste, gdyż ewidentnie czegoś brakuje. Oprócz tego jest mnóstwo błędów w znakach, gdyż kopista się ciągle mylił.\nZwykle mylił kasownik z krzyżykiem, ale czasem i zdarzało się mylić krzyżyk z bemolem.
!	!	!LO:TX:t=P:znaki:problem=e- pod ee-	!LO:TX:t=P:znaki:problem=e- pod ee-	!	!	!	!	!	!LO:TX:a:t=P:problem=kolejność znaków&colon; e- b- ee-	!	!	!	!	!	!
!LO:TX:b:t=Symphonia	!	!LO:TX:b:t=Sÿmphonia. a3	!LO:TX:b:t=Sÿmphonia.	!LO:TX:a:t=Sÿmphonie\nTacet	!	!	!	!	!LO:TX:a:t=Sympho\nTacet	!	!	!	!	!	!
2C/	.	2ee-\	2gg\	1ryy	.	.	.	.	1ryy	.	.	.	.	.	.
4C/	.	4cc\	4ee-\	.	.	.	.	.	.	.	.	.	.	.	.
4GG/	.	4b-\	4dd\	.	.	.	.	.	.	.	.	.	.	.	.
=2	=2	=2	=2	=2	=2	=2	=2	=2	=2	=2	=2	=2	=2	=2	=2
8C/L	.	2cc\	2ee-\	1ryy	.	.	.	.	1ryy	.	.	.	.	.	.
8D/	.	.	.	.	.	.	.	.	.	.	.	.	.	.	.
8E-/	.	.	.	.	.	.	.	.	.	.	.	.	.	.	.
8F/J	.	.	.	.	.	.	.	.	.	.	.	.	.	.	.
4G\	.	2bn/	2dd\	.	.	.	.	.	.	.	.	.	.	.	.
4GG/	x n	.	.	.	.	.	.	.	.	.	.	.	.	.	.
=3	=3	=3	=3	=3	=3	=3	=3	=3	=3	=3	=3	=3	=3	=3	=3
4.D/	.	4.dd\	4.ff\	1ryy	.	.	.	.	1ryy	.	.	.	.	.	.
8D/	.	8dd\	8ff\	.	.	.	.	.	.	.	.	.	.	.	.
2C/	x -	8cc\L	8ee-\L	.	.	.	.	.	.	.	.	.	.	.	.
.	.	8dd\	8ff\	.	.	.	.	.	.	.	.	.	.	.	.
.	.	8ee-\	8gg\	.	.	.	.	.	.	.	.	.	.	.	.
.	.	8ff\J	8aa\J	.	.	.	.	.	.	.	.	.	.	.	.
=4	=4	=4	=4	=4	=4	=4	=4	=4	=4	=4	=4	=4	=4	=4	=4
4BB-/	.	4gg\	4bb-\	1ryy	.	.	.	.	1ryy	.	.	.	.	.	.
4GG/	.	4gg\	4bb-\	.	.	.	.	.	.	.	.	.	.	.	.
2D/	43 #	4.gg\	2aa\	.	.	.	.	.	.	.	.	.	.	.	.
.	.	8ff#X\	.	.	.	.	.	.	.	.	.	.	.	.	.
=5	=5	=5	=5	=5	=5	=5	=5	=5	=5	=5	=5	=5	=5	=5	=5
2GG/	.	2gg\	2gg\	1ryy	.	.	.	.	1ryy	.	.	.	.	.	.
4BB-/	x 6	4gg\	4bb-\	.	.	.	.	.	.	.	.	.	.	.	.
4GG/	.	4gg\	4bb-\	.	.	.	.	.	.	.	.	.	.	.	.
=6	=6	=6	=6	=6	=6	=6	=6	=6	=6	=6	=6	=6	=6	=6	=6
2D/	x 43	4.gg\	2aa\	1ryy	.	.	.	.	1ryy	.	.	.	.	.	.
.	.	8ff#X\	.	.	.	.	.	.	.	.	.	.	.	.	.
2GG/	.	2gg\	2gg\	.	.	.	.	.	.	.	.	.	.	.	.
=7	=7	=7	=7	=7	=7	=7	=7	=7	=7	=7	=7	=7	=7	=7	=7
4.C/	.	8een\L	8gg\L	1ryy	.	.	.	.	1ryy	.	.	.	.	.	.
!	!	!	!LO:N:acc=#	!	!	!	!	!	!	!	!	!	!	!	!
.	.	8cc\J	8eenXi\	.	.	.	.	.	.	.	.	.	.	.	.
!	!	!LO:LB:g=original	!	!	!	!	!	!	!	!	!	!	!	!	!
.	.	8dd\L	8ff\	.	.	.	.	.	.	.	.	.	.	.	.
8C/	x n	8een\J	8gg\J	.	.	.	.	.	.	.	.	.	.	.	.
2FF/	x -	4.ff\	4.aa-X\	.	.	.	.	.	.	.	.	.	.	.	.
.	.	8ff\	8aa-\	.	.	.	.	.	.	.	.	.	.	.	.
!	!	!	!LO:LB:g=original	!	!	!	!	!	!	!	!	!	!	!	!
=8	=8	=8	=8	=8	=8	=8	=8	=8	=8	=8	=8	=8	=8	=8	=8
4.BB-/	.	8dd\L	8ff\L	1ryy	.	.	.	.	1ryy	.	.	.	.	.	.
.	.	8b-\	8dd\	.	.	.	.	.	.	.	.	.	.	.	.
.	.	8cc\	8ee-\	.	.	.	.	.	.	.	.	.	.	.	.
8BB-/	.	8dd\J	8ff\J	.	.	.	.	.	.	.	.	.	.	.	.
2E-\	.	4.ee-\	4.gg\	.	.	.	.	.	.	.	.	.	.	.	.
.	.	8ee-\	8gg\	.	.	.	.	.	.	.	.	.	.	.	.
!LO:LB:g=original	!	!	!	!	!	!	!	!	!	!	!	!	!	!	!
=9	=9	=9	=9	=9	=9	=9	=9	=9	=9	=9	=9	=9	=9	=9	=9
2F\	.	8ff\L	(8aa-X\L	1ryy	.	.	.	.	1ryy	.	.	.	.	.	.
.	.	8ee-\	8gg\)	.	.	.	.	.	.	.	.	.	.	.	.
.	.	8dd\	(8ff\	.	.	.	.	.	.	.	.	.	.	.	.
.	.	8cc\J	8ee-\J)	.	.	.	.	.	.	.	.	.	.	.	.
4.G\	.	8gg\L	(8bb-\L	.	.	.	.	.	.	.	.	.	.	.	.
.	.	8ff\	8aa-X\)	.	.	.	.	.	.	.	.	.	.	.	.
.	.	8ee-\	(8gg\	.	.	.	.	.	.	.	.	.	.	.	.
8G\	.	8dd\J	8ff\J)	.	.	.	.	.	.	.	.	.	.	.	.
=10	=10	=10	=10	=10	=10	=10	=10	=10	=10	=10	=10	=10	=10	=10	=10
4.A-X\	.	8cc\L	8ee-\L	1ryy	.	.	.	.	1ryy	.	.	.	.	.	.
.	.	8dd\J	8ff\J	.	.	.	.	.	.	.	.	.	.	.	.
.	.	2ee-\	4gg\	.	.	.	.	.	.	.	.	.	.	.	.
8G\	.	.	.	.	.	.	.	.	.	.	.	.	.	.	.
4B-\	.	.	2ff\	.	.	.	.	.	.	.	.	.	.	.	.
4BB-/	x 43	4dd\	.	.	.	.	.	.	.	.	.	.	.	.	.
=11	=11	=11	=11	=11	=11	=11	=11	=11	=11	=11	=11	=11	=11	=11	=11
2E-\	.	8ee-\L	8gg\L	1ryy	.	.	.	.	1ryy	.	.	.	.	.	.
.	.	8ff\J	8aa-X\J	.	.	.	.	.	.	.	.	.	.	.	.
.	.	8ee-\LL	8gg\LL	.	.	.	.	.	.	.	.	.	.	.	.
.	.	16dd\	16ff\	.	.	.	.	.	.	.	.	.	.	.	.
.	.	16cc\JJ	16ee-\JJ	.	.	.	.	.	.	.	.	.	.	.	.
2BB-/	.	8dd\L	8ff\L	.	.	.	.	.	.	.	.	.	.	.	.
.	.	8ee-\J	8gg\J	.	.	.	.	.	.	.	.	.	.	.	.
.	.	8dd\LL	8ff\LL	.	.	.	.	.	.	.	.	.	.	.	.
.	.	16cc\	16ee-\	.	.	.	.	.	.	.	.	.	.	.	.
.	.	16b-\JJ	16dd\JJ	.	.	.	.	.	.	.	.	.	.	.	.
=12	=12	=12	=12	=12	=12	=12	=12	=12	=12	=12	=12	=12	=12	=12	=12
2C/	.	8een\L	8gg\L	1ryy	.	.	.	.	1ryy	.	.	.	.	.	.
.	.	16ff#X\L	16aa\L	.	.	.	.	.	.	.	.	.	.	.	.
.	.	16gg\JJ	16bb-\JJ	.	.	.	.	.	.	.	.	.	.	.	.
!	!	!LO:LB:g=original	!	!	!	!	!	!	!	!	!	!	!	!	!
.	.	8aa\L	8ccc\L	.	.	.	.	.	.	.	.	.	.	.	.
.	.	8gg\J	8bb-\J	.	.	.	.	.	.	.	.	.	.	.	.
2D/	.	4.gg\	2aa\	.	.	.	.	.	.	.	.	.	.	.	.
.	.	8ff#Xi\	.	.	.	.	.	.	.	.	.	.	.	.	.
!	!	!	!LO:LB:g=original	!	!	!	!	!	!	!	!	!	!	!	!
=13	=13	=13	=13	=13	=13	=13	=13	=13	=13	=13	=13	=13	=13	=13	=13
4.G\	.	4.gg\	4.gg\	1ryy	.	.	.	.	1ryy	.	.	.	.	.	.
!	!	!LO:TX:t=P:problem=usunięta kreska taktowa	!	!	!	!	!	!	!	!	!	!	!	!	!
8E-\	.	8ee-X\	8gg\	.	.	.	.	.	.	.	.	.	.	.	.
2BB-/	.	4.dd\	4.ff\	.	.	.	.	.	.	.	.	.	.	.	.
.	.	8ee-\	8gg\	.	.	.	.	.	.	.	.	.	.	.	.
=14	=14	=14	=14	=14	=14	=14	=14	=14	=14	=14	=14	=14	=14	=14	=14
4.C/	.	4.cc\	4.ee-\	1ryy	.	.	.	.	1ryy	.	.	.	.	.	.
8C/	.	8dd\	8ff\	.	.	.	.	.	.	.	.	.	.	.	.
4.G\	.	4.bn\	4.dd\	.	.	.	.	.	.	.	.	.	.	.	.
8E-\	.	8cc\	8ee-\	.	.	.	.	.	.	.	.	.	.	.	.
=15	=15	=15	=15	=15	=15	=15	=15	=15	=15	=15	=15	=15	=15	=15	=15
2F\	.	4.dd\	4.ff\	1ryy	.	.	.	.	1ryy	.	.	.	.	.	.
.	.	8cc\	8ee-\	.	.	.	.	.	.	.	.	.	.	.	.
4G\	.	4.cc\	2dd\	.	.	.	.	.	.	.	.	.	.	.	.
4GG/	x 43	.	.	.	.	.	.	.	.	.	.	.	.	.	.
.	.	8bn\	.	.	.	.	.	.	.	.	.	.	.	.	.
=16	=16	=16	=16	=16	=16	=16	=16	=16	=16	=16	=16	=16	=16	=16	=16
4C/	.	4cc\	4cc\	1ryy	.	.	.	.	1ryy	.	.	.	.	.	.
8r	.	8r	8r	.	.	.	.	.	.	.	.	.	.	.	.
8E-\	.	8gg\	8ee-\	.	.	.	.	.	.	.	.	.	.	.	.
2BB-/	.	4.ff\	4.dd\	.	.	.	.	.	.	.	.	.	.	.	.
.	.	8gg\	8ee-\	.	.	.	.	.	.	.	.	.	.	.	.
=17	=17	=17	=17	=17	=17	=17	=17	=17	=17	=17	=17	=17	=17	=17	=17
4.C/	.	4.ee-\	4.cc\	1ryy	.	.	.	.	1ryy	.	.	.	.	.	.
8C/	.	8ff\	8dd\	.	.	.	.	.	.	.	.	.	.	.	.
4.G\	x n	4.dd\	4.bn\	.	.	.	.	.	.	.	.	.	.	.	.
8E-\	.	8ee-\	8cc\	.	.	.	.	.	.	.	.	.	.	.	.
!LO:LB:g=original	!	!	!	!	!	!	!	!	!	!	!	!	!	!	!
=18	=18	=18	=18	=18	=18	=18	=18	=18	=18	=18	=18	=18	=18	=18	=18
2F\	.	4.ff\	4.dd\	1ryy	.	.	.	.	1ryy	.	.	.	.	.	.
.	.	8ee-\	8cc\	.	.	.	.	.	.	.	.	.	.	.	.
4G\	.	2dd\	4.cc\	.	.	.	.	.	.	.	.	.	.	.	.
4GG/	.	.	.	.	.	.	.	.	.	.	.	.	.	.	.
!	!	!	!LO:LB:g=original	!	!	!	!	!	!	!	!	!	!	!	!
!	!	!	!LO:N:acc=#	!	!	!	!	!	!	!	!	!	!	!	!
.	.	.	8bnX/	.	.	.	.	.	.	.	.	.	.	.	.
!	!	!LO:LB:g=original	!	!	!	!	!	!	!	!	!	!	!	!	!
=19	=19	=19	=19	=19	=19	=19	=19	=19	=19	=19	=19	=19	=19	=19	=19
2C/	.	2cc\	2cc\	1ryy	.	.	.	.	1ryy	.	.	.	.	.	.
4r	.	4r	4r	.	.	.	.	.	.	.	.	.	.	.	.
4C/	.	4cc\	4ee-\	.	.	.	.	.	.	.	.	.	.	.	.
=20	=20	=20	=20	=20	=20	=20	=20	=20	=20	=20	=20	=20	=20	=20	=20
1C	.	2cc\	1dd	1ryy	.	.	.	.	1ryy	.	.	.	.	.	.
!	!	!LO:SIC:v:s=2bn/	!	!	!	!	!	!	!	!	!	!	!	!	!
.	.	2b-/	.	.	.	.	.	.	.	.	.	.	.	.	.
=21	=21	=21	=21	=21	=21	=21	=21	=21	=21	=21	=21	=21	=21	=21	=21
1ryy	.	1cc	1cc	1ryy	.	.	.	.	1ryy	.	.	.	.	.	.
=22:|!|:	=22:|!|:	=22:|!|:	=22:|!|:	=22:|!|:	=22:|!|:	=22:|!|:	=22:|!|:	=22:|!|:	=22:|!|:	=22:|!|:	=22:|!|:	=22:|!|:	=22:|!|:	=22:|!|:	=22:|!|:
!LO:TX:b:t=Noc naſtaie	!	!LO:TX:a:t=Noc naſtaie\nTacet	!LO:TX:a:t=Noc naſtaie\nTacet	!	!	!	!	!	!	!	!	!	!	!	!
1c	.	1ryy	1ryy	[y1e-X	Noc	Niech	.	.	[y1gg	Noc	Niech	Płacz	Wa-	Płacz	Placz-
=23	=23	=23	=23	=23	=23	=23	=23	=23	=23	=23	=23	=23	=23	=23	=23
!	!	!	!	!LO:N:vis=4:xstem:cue	!	!	!	!	!LO:N:vis=4:xstem:cue	!	!	!	!	!	!
2c\	.	1ryy	1ryy	2e-\]	.	.	.	.	2gg\]	.	.	.	.	.	.
*	*	*	*	*2\right	*	*	*	*	*2\right	*	*	*	*	*	*
2B-\	.	.	.	2d\	na-	cie	.	.	2gg\	na-	cie	wſze	-ſza	Slicz-	-cie
=24	=24	=24	=24	=24	=24	=24	=24	=24	=24	=24	=24	=24	=24	=24	=24
1A-X	x 76	1ryy	1ryy	[y1c	-sta-	lu-	.	.	(2gg\	-sta-	lu-	ſtwo-	dzis	-ne	pła-
.	.	.	.	.	.	.	.	.	2ff\)	.	.	-rze-	ra-	nie-	-nę-
=25	=25	=25	=25	=25-	=25	=25	=25	=25	=25	=25	=25	=25	=25	=25	=25
!	!	!	!	!LO:N:vis=4:xstem:cue	!	!	!	!	!	!	!	!	!	!	!
1G	.	1ryy	1ryy	2c\]	.	.	.	.	1gg	-ie	-dzie	-nie,	-dosc,	-bo,	-ty,
!	!	!	!	!LO:N:acc=#	!	!	!	!	!	!	!	!	!	!	!
.	.	.	.	2BnXi\	-ie	-dzie	.	.	.	.	.	.	.	.	.
=26	=26	=26	=26	=26	=26	=26	=26	=26	=26	=26	=26	=26	=26	=26	=26
2r	.	1ryy	1ryy	2r	.	.	.	.	2r	.	.	.	.	.	.
!	!	!	!	!LO:N:acc=#	!	!	!	!	!	!	!	!	!	!	!
2C/	.	.	.	2eni\	Ach	Ach	.	.	2gg\	ach	ach	ach	ach	ach	ach
=27	=27	=27	=27	=27	=27	=27	=27	=27	=27	=27	=27	=27	=27	=27	=27
2r	.	1ryy	1ryy	2r	.	.	.	.	2r	.	.	.	.	.	.
2A-X\	.	.	.	2c\	ach	rosz-	.	.	2ee-\	ach	ach	ach	ach	ach	u-
=28	=28	=28	=28	=28	=28	=28	=28	=28	=28	=28	=28	=28	=28	=28	=28
!LO:SIC:v:s=1A-	!	!	!	!	!	!	!	!	!	!	!	!	!	!	!
1A	.	1ryy	1ryy	1c	smut-	-ko-	.	.	(2ee-\	smu-	rosz-	rze-	o-	la-	-tu-
.	.	.	.	.	.	.	.	.	2ff\)	.	-ko-	-wli-	-die-	-men-	-le-
=29	=29	=29	=29	=29	=29	=29	=29	=29	=29	=29	=29	=29	=29	=29	=29
!	!	!	!	!LO:N:acc=#	!	!	!	!	!	!	!	!	!	!	!
2G\	.	1ryy	1ryy	1BnXi	-na	-szy	.	.	1gg	-tna	-szy	-wo	-to	-tuycie	-nia
2GG/	.	.	.	.	.	.	.	.	.	.	.	.	.	.	.
=30	=30	=30	=30	=30	=30	=30	=30	=30	=30	=30	=30	=30	=30	=30	=30
2r	.	1ryy	1ryy	2r	.	.	.	.	2r	.	.	.	.	.	.
!	!	!	!	!LO:N:acc=#	!	!	!	!	!	!	!	!	!	!	!
2GG/	.	.	.	2BnXi\	ỳ	y	.	.	2dd\	y	y	płacz-	y	Słon-	Niech
=31	=31	=31	=31	=31	=31	=31	=31	=31	=31	=31	=31	=31	=31	=31	=31
1C	.	1ryy	1ryy	1c	wiel-	wſzel-	.	.	1ee-	Wiel-	wiel-	-cie	We-	-ce	y
=32	=32	=32	=32	=32	=32	=32	=32	=32	=32	=32	=32	=32	=32	=32	=32
2C/	.	1ryy	1ryy	2c\	-kiey	-ki	.	.	4ee-\	-kiey	-kiey	Du-	-ſe-	Mie-	Zy-
.	.	.	.	.	.	.	.	.	4ff\	.	.	.	.	.	.
!	!	!	!	!LO:LB:g=original	!	!	!	!	!	!	!	!	!	!	!
4BB-/	.	.	.	2d\	za-	ra-	.	.	1gg	za-	ra-	-chy	-le	-ſiąc	-wioł
4C/	.	.	.	.	.	.	.	.	.	.	.	.	.	.	.
!LO:LB:g=original	!	!	!	!	!	!	!	!	!	!	!	!	!	!	!
=33	=33	=33	=33	=33	=33	=33	=33	=33	=33	=33	=33	=33	=33	=33	=33
1D	.	1ryy	1ryy	1A	-ło-	-do-	.	.	.	.	.	.	.	.	.
!	!	!	!	!	!	!	!	!	!LO:SIC:v:s=2ff#\	!	!	!	!	!	!
.	.	.	.	.	.	.	.	.	2ff\	-ło-	-do-	Swie-	Swię-	Gwia-	Kaz-
=34	=34	=34	=34	=34-	=34	=34	=34	=34	=34	=34	=34	=34	=34	=34	=34
!	!	!	!	!LO:N:acc=#	!	!	!	!	!	!	!	!	!	!	!
1GG	.	1ryy	1ryy	1Bni	-sci	-sci	.	.	1gg	-sci	-sci	-te	-te	-zdy	-dÿ
=35:|!|:	=35:|!|:	=35:|!|:	=35:|!|:	=35:|!|:	=35:|!|:	=35:|!|:	=35:|!|:	=35:|!|:	=35:|!|:	=35:|!|:	=35:|!|:	=35:|!|:	=35:|!|:	=35:|!|:	=35:|!|:
!	!	!	!	!LO:N:acc=#	!	!	!	!	!	!	!	!	!	!	!
2G\	x n	1ryy	1ryy	2BnX\	Ley-	.	.	.	2dd\	Ley-	.	Płacz-	.	.	Płacz-
4G\	.	.	.	(8c\L	-cie	.	.	.	(8dd\L	-cie	.	-cie	.	.	-cie
.	.	.	.	8c\J)	.	.	.	.	8ee-\J)	.	.	.	.	.	.
4F\	x 6	.	.	(8d\L	łzy	.	.	.	(8ff\L	łzy	.	przy	.	.	ſer-
.	.	.	.	8c\J)	.	.	.	.	8ee-\J)	.	.	.	.	.	.
=36	=36	=36	=36	=36	=36	=36	=36	=36	=36	=36	=36	=36	=36	=36	=36
!	!	!	!	!LO:N:acc=#	!	!	!	!	!	!	!	!	!	!	!
2G\	.	1ryy	1ryy	2BnX\	gorz-	.	.	.	2dd\	goz-	.	ſmier-	.	.	-decz-
2G\	x n	.	.	2B\	-kie	.	.	.	2dd\	-kie	.	-ci	.	.	-nie
=37	=37	=37	=37	=37	=37	=37	=37	=37	=37	=37	=37	=37	=37	=37	=37
4.E-\	.	1ryy	1ryy	4.e-X\	płacz-	.	.	.	4.gg\	płacz-	.	płacz-	.	.	za-
8E-\	.	.	.	8e-\	-cie	.	.	.	8gg\	-cie	.	-cie	.	.	-mor-
4F\	x -	.	.	4f\	za-	.	.	.	4aa-X\	za-	.	przy	.	.	-do-
8G\L	.	.	.	4e-\	-bi-	.	.	.	4gg\	-bi-	.	po-	.	.	-wa-
8A\J	.	.	.	.	.	.	.	.	.	.	.	.	.	.	.
=38	=38	=38	=38	=38	=38	=38	=38	=38	=38	=38	=38	=38	=38	=38	=38
4B-\	.	1ryy	1ryy	4d\	-te-	.	.	.	4ff\	-te-	.	-grze-	.	.	-ne-
4B-\	.	.	.	4d\	-go	.	.	.	4ff\	-go	.	-bie	.	.	-go
2E-\	.	.	.	2e-X\	Bo-	.	.	.	2gg\	Bo-	.	Bo-	.	.	ach
=39	=39	=39	=39	=39	=39	=39	=39	=39	=39	=39	=39	=39	=39	=39	=39
4A-X\	.	1ryy	1ryy	4c\	-ga	.	.	.	4ee-\	-ga	.	-ga	.	.	Sy-
4F\	.	.	.	(8d\L	wa-	.	.	.	8ff\L	wa-	.	Na	.	.	-na
.	.	.	.	8c\J)	.	.	.	.	8ee-\J	.	.	.	.	.	Bo-
4G\	.	.	.	4c\	-ſze-	.	.	.	2dd\	-ſze-	.	nie-	.	.	-ze-
4GG/	.	.	.	4B-\	.	.	.	.	.	.	.	.	.	.	.
=40	=40	=40	=40	=40	=40	=40	=40	=40	=40	=40	=40	=40	=40	=40	=40
!	!	!	!	!LO:TX:b:t=Vertatur Cito	!	!	!	!	!	!	!	!	!	!	!
1C	.	1ryy	1ryy	1c	-go	.	.	.	1cc;	-go	.	-bie	.	.	-go
!LO:LB:g=original	!	!	!	!LO:PB:g=original	!	!	!	!	!	!	!	!	!	!	!
=41:|!|:	=41:|!|:	=41||	=41:|!|:	=41:|!|:	=41:|!|:	=41:|!|:	=41:|!|:	=41:|!|:	=41:|!|:	=41:|!|:	=41:|!|:	=41:|!|:	=41:|!|:	=41:|!|:	=41:|!|:
*	*	*	*k[b-e-]	*	*	*	*	*	*	*	*	*	*	*	*
*M2/2	*	*M2/2	*M2/2	*M2/2	*	*	*	*	*M2/2	*	*	*	*	*	*
*met(c)	*	*met(c|)	*met(c|)	*met(c|)	*	*	*	*	*met(c|)	*	*	*	*	*	*
!	!	!	!LO:TX:t=P:znaki:problem=e- pod ee-	!	!	!	!	!	!	!	!	!	!	!	!
!LO:TX:b:t=2. Symphonia	!	!LO:TX:b:t=Sẏmṕhonia	!LO:TX:b:t=Sÿmphonia. a3.	!LO:TX:a:t=Sÿmphonia\nTacet	!	!	!	!	!LO:TX:a:t=Simpho(nia) tacet	!	!	!	!	!	!
[y1C	.	1e-	1g	1ryy	.	.	.	.	1ryy	.	.	.	.	.	.
=42	=42	=42	=42	=42	=42	=42	=42	=42	=42	=42	=42	=42	=42	=42	=42
!LO:N:vis=4:xstem:cue	!	!	!	!	!	!	!	!	!	!	!	!	!	!	!
2C/]	.	2e-/	2g/	1ryy	.	.	.	.	1ryy	.	.	.	.	.	.
2BB-/	.	2d/	2g/	.	.	.	.	.	.	.	.	.	.	.	.
=43	=43	=43	=43	=43	=43	=43	=43	=43	=43	=43	=43	=43	=43	=43	=43
1AA-X	x 76	1c	2g/	1ryy	.	.	.	.	1ryy	.	.	.	.	.	.
.	.	.	2f#X/	.	.	.	.	.	.	.	.	.	.	.	.
=44	=44	=44	=44	=44	=44	=44	=44	=44	=44	=44	=44	=44	=44	=44	=44
1GG	.	2c/	1g	1ryy	.	.	.	.	1ryy	.	.	.	.	.	.
!	!	!LO:N:acc=#	!	!	!	!	!	!	!	!	!	!	!	!	!
.	.	2BnX/	.	.	.	.	.	.	.	.	.	.	.	.	.
=45	=45	=45	=45	=45	=45	=45	=45	=45	=45	=45	=45	=45	=45	=45	=45
2r	.	2r	2r	1ryy	.	.	.	.	1ryy	.	.	.	.	.	.
!	!	!LO:TX:b:t=P:problem=♮ below	!	!	!	!	!	!	!	!	!	!	!	!	!
!	!	!LO:N:acc=#	!	!	!	!	!	!	!	!	!	!	!	!	!
2C/	.	2enX/	2g/	.	.	.	.	.	.	.	.	.	.	.	.
=46	=46	=46	=46	=46	=46	=46	=46	=46	=46	=46	=46	=46	=46	=46	=46
2r	.	2r	2r	1ryy	.	.	.	.	1ryy	.	.	.	.	.	.
2AA-X/	.	2c/	2e-X/	.	.	.	.	.	.	.	.	.	.	.	.
!	!	!	!LO:LB:g=original	!	!	!	!	!	!	!	!	!	!	!	!
=47	=47	=47	=47	=47	=47	=47	=47	=47	=47	=47	=47	=47	=47	=47	=47
!LO:SIC:v:s=1AA-	!	!	!	!	!	!	!	!	!	!	!	!	!	!	!
1AA	76	1c	2e-/	1ryy	.	.	.	.	1ryy	.	.	.	.	.	.
.	.	.	2f/	.	.	.	.	.	.	.	.	.	.	.	.
=48	=48	=48	=48	=48	=48	=48	=48	=48	=48	=48	=48	=48	=48	=48	=48
!	!	!LO:TX:b:t=P:problem=♮ below	!	!	!	!	!	!	!	!	!	!	!	!	!
!	!	!LO:N:acc=#	!	!	!	!	!	!	!	!	!	!	!	!	!
1GG	x n	1BnX	1g	1ryy	.	.	.	.	1ryy	.	.	.	.	.	.
!	!	!LO:LB:g=original	!	!	!	!	!	!	!	!	!	!	!	!	!
=49	=49	=49	=49	=49	=49	=49	=49	=49	=49	=49	=49	=49	=49	=49	=49
2r	.	2r	2r	1ryy	.	.	.	.	1ryy	.	.	.	.	.	.
2GG/	x n	2B-/	2d/	.	.	.	.	.	.	.	.	.	.	.	.
=50	=50	=50	=50	=50	=50	=50	=50	=50	=50	=50	=50	=50	=50	=50	=50
1C	.	1c	1e-	1ryy	.	.	.	.	1ryy	.	.	.	.	.	.
=51	=51	=51	=51	=51	=51	=51	=51	=51	=51	=51	=51	=51	=51	=51	=51
2C/	.	2c/	4e-/	1ryy	.	.	.	.	1ryy	.	.	.	.	.	.
.	.	.	4f/	.	.	.	.	.	.	.	.	.	.	.	.
!	!	!	!LO:TX:t=P:problem=brak krestki taktowej	!	!	!	!	!	!	!	!	!	!	!	!
!	!	!	!LO:N:vis=1	!	!	!	!	!	!	!	!	!	!	!	!
4BB-/	x 6	2d/	1g/	.	.	.	.	.	.	.	.	.	.	.	.
4C/	x 6	.	.	.	.	.	.	.	.	.	.	.	.	.	.
=52	=52	=52	=52-	=52	=52	=52	=52	=52	=52	=52	=52	=52	=52	=52	=52
1D	x 43	2A/	.	1ryy	.	.	.	.	1ryy	.	.	.	.	.	.
.	.	2A/	2f#X/	.	.	.	.	.	.	.	.	.	.	.	.
=53	=53	=53	=53	=53	=53	=53	=53	=53	=53	=53	=53	=53	=53	=53	=53
1GG	.	1B-	1g	1ryy	.	.	.	.	1ryy	.	.	.	.	.	.
=54:|!|:	=54:|!|:	=54	=54||	=54:|!|:	=54:|!|:	=54:|!|:	=54:|!|:	=54:|!|:	=54:|!|:	=54:|!|:	=54:|!|:	=54:|!|:	=54:|!|:	=54:|!|:	=54:|!|:
[y1c	.	1ee-	1gg	1ryy	.	.	.	.	1ryy	.	.	.	.	.	.
=55	=55	=55	=55-	=55	=55	=55	=55	=55	=55	=55	=55	=55	=55	=55	=55
!LO:N:xstem:cue	!	!	!	!	!	!	!	!	!	!	!	!	!	!	!
4c\]	.	2ee-\	2gg\	1ryy	.	.	.	.	1ryy	.	.	.	.	.	.
2c\	.	.	.	.	.	.	.	.	.	.	.	.	.	.	.
.	.	2dd\	2gg\	.	.	.	.	.	.	.	.	.	.	.	.
4B-\	.	.	.	.	.	.	.	.	.	.	.	.	.	.	.
!LO:LB:g=original	!	!	!	!	!	!	!	!	!	!	!	!	!	!	!
=56	=56	=56	=56	=56	=56	=56	=56	=56	=56	=56	=56	=56	=56	=56	=56
1A-X	x 76	1cc	2gg\	1ryy	.	.	.	.	1ryy	.	.	.	.	.	.
.	.	.	2ff\	.	.	.	.	.	.	.	.	.	.	.	.
=57	=57	=57	=57	=57	=57	=57	=57	=57	=57	=57	=57	=57	=57	=57	=57
1G	x n	2cc\	1gg	1ryy	.	.	.	.	1ryy	.	.	.	.	.	.
.	.	2bn/	.	.	.	.	.	.	.	.	.	.	.	.	.
=58	=58	=58	=58	=58	=58	=58	=58	=58	=58	=58	=58	=58	=58	=58	=58
2r	.	2r	2r	1ryy	.	.	.	.	1ryy	.	.	.	.	.	.
!	!	!LO:N:acc=#	!	!	!	!	!	!	!	!	!	!	!	!	!
2C/	.	2eeniX\	2gg\	.	.	.	.	.	.	.	.	.	.	.	.
=59	=59	=59	=59	=59	=59	=59	=59	=59	=59	=59	=59	=59	=59	=59	=59
2r	.	2r	2r	1ryy	.	.	.	.	1ryy	.	.	.	.	.	.
2A-X\	.	2cc\	2ee-\	.	.	.	.	.	.	.	.	.	.	.	.
=60	=60	=60	=60	=60	=60	=60	=60	=60	=60	=60	=60	=60	=60	=60	=60
!LO:SIC:v:s=1A-	!	!	!	!	!	!	!	!	!	!	!	!	!	!	!
1A	x 76	1cc	2ee-\	1ryy	.	.	.	.	1ryy	.	.	.	.	.	.
.	.	.	2ff\	.	.	.	.	.	.	.	.	.	.	.	.
=61	=61	=61	=61	=61	=61	=61	=61	=61	=61	=61	=61	=61	=61	=61	=61
!	!	!LO:N:acc=#	!	!	!	!	!	!	!	!	!	!	!	!	!
2G\	.	1bnX	1gg	1ryy	.	.	.	.	1ryy	.	.	.	.	.	.
2GG/	x n	.	.	.	.	.	.	.	.	.	.	.	.	.	.
!	!	!	!LO:LB:g=original	!	!	!	!	!	!	!	!	!	!	!	!
=62	=62	=62	=62	=62	=62	=62	=62	=62	=62	=62	=62	=62	=62	=62	=62
2r	.	2r	2r	1ryy	.	.	.	.	1ryy	.	.	.	.	.	.
!	!	!LO:TX:b:t=P:problem=♮ below	!	!	!	!	!	!	!	!	!	!	!	!	!
2GG/	x n	2bn/	2dd\	.	.	.	.	.	.	.	.	.	.	.	.
!	!	!LO:LB:g=original	!	!	!	!	!	!	!	!	!	!	!	!	!
=63	=63	=63	=63	=63	=63	=63	=63	=63	=63	=63	=63	=63	=63	=63	=63
1C	.	1cc	1ee-	1ryy	.	.	.	.	1ryy	.	.	.	.	.	.
=64	=64	=64	=64	=64	=64	=64	=64	=64	=64	=64	=64	=64	=64	=64	=64
2C/	.	2cc\	4ee-\	1ryy	.	.	.	.	1ryy	.	.	.	.	.	.
.	.	.	4ff\	.	.	.	.	.	.	.	.	.	.	.	.
4BB-/	x 6	2dd\	2gg\	.	.	.	.	.	.	.	.	.	.	.	.
4C/	x 6	.	.	.	.	.	.	.	.	.	.	.	.	.	.
=65	=65	=65	=65	=65	=65	=65	=65	=65	=65	=65	=65	=65	=65	=65	=65
1D	x 43	1a	2gg\	1ryy	.	.	.	.	1ryy	.	.	.	.	.	.
.	.	.	2ff#Xi\	.	.	.	.	.	.	.	.	.	.	.	.
=66	=66	=66-	=66	=66	=66	=66	=66	=66	=66	=66	=66	=66	=66	=66	=66
!	!	!LO:N:acc=#	!	!	!	!	!	!	!	!	!	!	!	!	!
1GG	.	1bnX	1gg	1ryy	.	.	.	.	1ryy	.	.	.	.	.	.
=67	=67:|!|:	=67	=67:|!|:	=67:|!|:	=67:|!|:	=67:|!|:	=67:|!|:	=67:|!|:	=67:|!|:	=67:|!|:	=67:|!|:	=67:|!|:	=67:|!|:	=67:|!|:	=67:|!|:
!	!	!LO:N:acc=#	!	!	!	!	!	!	!	!	!	!	!	!	!
2GG/	.	2Bn/	2d/	1ryy	.	.	.	.	1ryy	.	.	.	.	.	.
4GG/	.	(8Bny/L	8d/L	.	.	.	.	.	.	.	.	.	.	.	.
.	.	8c/)	8e-/J	.	.	.	.	.	.	.	.	.	.	.	.
4FF/	.	(8d/	8f/L	.	.	.	.	.	.	.	.	.	.	.	.
.	.	8c/J)	8e-/J	.	.	.	.	.	.	.	.	.	.	.	.
=68	=68	=68	=68	=68	=68	=68	=68	=68	=68	=68	=68	=68	=68	=68	=68
!	!	!LO:N:acc=#	!	!	!	!	!	!	!	!	!	!	!	!	!
2GG/	.	2BnX/	2d/	1ryy	.	.	.	.	1ryy	.	.	.	.	.	.
2GG/	x n	2BnyX/	2d/	.	.	.	.	.	.	.	.	.	.	.	.
!LO:PB:g=original	!	!	!	!	!	!	!	!	!	!	!	!	!	!	!
=69	=69	=69	=69	=69	=69	=69	=69	=69	=69	=69	=69	=69	=69	=69	=69
2GG/	.	4.e-/	4g/	1ryy	.	.	.	.	1ryy	.	.	.	.	.	.
.	.	.	4g/	.	.	.	.	.	.	.	.	.	.	.	.
.	.	8e-/	.	.	.	.	.	.	.	.	.	.	.	.	.
4GG/	.	4f/	4a-X/	.	.	.	.	.	.	.	.	.	.	.	.
4GG/	.	4e-/	4g/	.	.	.	.	.	.	.	.	.	.	.	.
=70	=70	=70	=70	=70	=70	=70	=70	=70	=70	=70	=70	=70	=70	=70	=70
2GG/	.	4d/	4f/	1ryy	.	.	.	.	1ryy	.	.	.	.	.	.
.	.	4d/	4f/	.	.	.	.	.	.	.	.	.	.	.	.
2GG/	x n	2e-/	2g/	.	.	.	.	.	.	.	.	.	.	.	.
=71	=71	=71	=71	=71	=71	=71	=71	=71	=71	=71	=71	=71	=71	=71	=71
!LO:TX:t=P:problem=pion, brakujące 4 takty	!	!	!	!	!	!	!	!	!	!	!	!	!	!	!
1ryy	.	4c/	4e-/	1ryy	.	.	.	.	1ryy	.	.	.	.	.	.
.	.	8d/L	(8f/L	.	.	.	.	.	.	.	.	.	.	.	.
.	.	8c/J	8e-/J)	.	.	.	.	.	.	.	.	.	.	.	.
.	.	4c/	2d/	.	.	.	.	.	.	.	.	.	.	.	.
.	.	4B-/	.	.	.	.	.	.	.	.	.	.	.	.	.
!	!	!	!LO:LB:g=original	!	!	!	!	!	!	!	!	!	!	!	!
=72	=72	=72	=72	=72	=72	=72	=72	=72	=72	=72	=72	=72	=72	=72	=72
1ryy	.	1c	1c	1ryy	.	.	.	.	1ryy	.	.	.	.	.	.
=73	=73	=73	=73	=73	=73	=73	=73	=73	=73	=73	=73	=73	=73	=73	=73
!	!	!LO:N:acc=#	!	!	!	!	!	!	!	!	!	!	!	!	!
1ryy	.	2bnX/	2dd\	1ryy	.	.	.	.	1ryy	.	.	.	.	.	.
!	!	!LO:SIC:v:s=8b	!	!	!	!	!	!	!	!	!	!	!	!	!
.	.	(8b\L	8dd\L	.	.	.	.	.	.	.	.	.	.	.	.
.	.	8cc\J)	8ee-\	.	.	.	.	.	.	.	.	.	.	.	.
!	!	!LO:LB:g=original	!LO:N:acc=-	!	!	!	!	!	!	!	!	!	!	!	!
.	.	(8dd\L	8ffnX\	.	.	.	.	.	.	.	.	.	.	.	.
.	.	8cc\J)	8ee-\J	.	.	.	.	.	.	.	.	.	.	.	.
=74	=74	=74	=74	=74	=74	=74	=74	=74	=74	=74	=74	=74	=74	=74	=74
!	!	!LO:N:acc=#	!	!	!	!	!	!	!	!	!	!	!	!	!
1ryy	.	2bnX/	2dd\	1ryy	.	.	.	.	1ryy	.	.	.	.	.	.
.	.	2b/	2dd\	.	.	.	.	.	.	.	.	.	.	.	.
=75	=75	=75	=75	=75	=75	=75	=75	=75	=75	=75	=75	=75	=75	=75	=75
4.EE-/	.	4.ee-\	4.gg\	1ryy	.	.	.	.	1ryy	.	.	.	.	.	.
8EE-/	.	8ee-\	8gg\	.	.	.	.	.	.	.	.	.	.	.	.
4FF/	.	4ff\	4aa-X\	.	.	.	.	.	.	.	.	.	.	.	.
8GG/L	.	4ee-\	4gg\	.	.	.	.	.	.	.	.	.	.	.	.
8AA/J	.	.	.	.	.	.	.	.	.	.	.	.	.	.	.
=76	=76	=76	=76	=76	=76	=76	=76	=76	=76	=76	=76	=76	=76	=76	=76
4BB-/	.	4dd\	4ff\	1ryy	.	.	.	.	1ryy	.	.	.	.	.	.
4BB-/	.	4dd\	4ee-\	.	.	.	.	.	.	.	.	.	.	.	.
2EE-/	.	2ee-\	2gg\	.	.	.	.	.	.	.	.	.	.	.	.
=77	=77	=77	=77	=77	=77	=77	=77	=77	=77	=77	=77	=77	=77	=77	=77
4AA-X/	.	4cc\	4ee-\	1ryy	.	.	.	.	1ryy	.	.	.	.	.	.
4FF/	x 65	(8dd\L	8ff\L	.	.	.	.	.	.	.	.	.	.	.	.
.	.	8cc\J)	8ee-\J	.	.	.	.	.	.	.	.	.	.	.	.
4GG/	.	4cc\	2dd\	.	.	.	.	.	.	.	.	.	.	.	.
!	!	!LO:N:acc=#	!	!	!	!	!	!	!	!	!	!	!	!	!
4GG/	x 43	4bnX/	.	.	.	.	.	.	.	.	.	.	.	.	.
=78	=78	=78	=78	=78	=78	=78	=78	=78	=78	=78	=78	=78	=78	=78	=78
1C	.	1cc	1cc	1ryy	.	.	.	.	1ryy	.	.	.	.	.	.
=79:|!|:	=79:|!|:	=79:|!|:	=79:|!|:	=79:|!|:	=79:|!|:	=79:|!|:	=79:|!|:	=79:|!|:	=79:|!|:	=79:|!|:	=79:|!|:	=79:|!|:	=79:|!|:	=79:|!|:	=79:|!|:
!LO:TX:b:t=Płacz wſze ſtworzenie	!	!LO:TX:a:t=Placz wſze\nStworzenie\nTacet	!LO:TX:a:t=Płacz wſzſe ſtworze\nne Tacet	!	!	!	!	!	!LO:N:vis=1.	!	!	!	!	!	!
[y1c	.	1ryy	1ryy	1e-X	Płacz	Wa-	Płacz	Płacz-	[y1ggyy	Noc	Niech	Płacz	Wa-	Płacz	Placz-
=80	=80	=80	=80	=80	=80	=80	=80	=80	=80	=80	=80	=80	=80	=80	=80
!LO:N:vis=4:xstem:cue	!	!	!	!LO:SIC:v:s=2e-\	!	!	!	!	!LO:N:vis=4:xstem:cue	!	!	!	!	!	!
2c\]	.	1ryy	1ryy	2e\	wſze	-ſza	slicz-	-cie	2ggyy\]	.	.	.	.	.	.
2B-\	.	.	.	2d\	ſtwo-	dzis	-ne	pła-	2gg\yy	na-	cie	wſze	-ſza	Slicz-	-cie
=81	=81	=81	=81	=81	=81	=81	=81	=81	=81	=81	=81	=81	=81	=81	=81
1A-X	.	1ryy	1ryy	[y1c	-rze-	ra-	nie-	-ne-	(y2ggyy\	-sta-	lu-	ſtwo-	dzis	-ne	pła-
.	.	.	.	.	.	.	.	.	2ff\yy)	.	.	-rze-	ra-	nie-	-nę-
=82	=82	=82	=82	=82-	=82	=82	=82	=82	=82	=82	=82	=82	=82	=82	=82
!	!	!	!	!LO:N:vis=4:xstem:cue	!	!	!	!	!	!	!	!	!	!	!
1G	.	1ryy	1ryy	2c\]	.	.	.	.	1ggyy	-ie	-dzie	-nie,	-dosc,	-bo,	-ty,
!	!	!	!	!LO:SIC:v:s=2Bn\	!	!	!	!	!	!	!	!	!	!	!
.	.	.	.	2B-\	-nie	-dosc	-bo	-ty	.	.	.	.	.	.	.
=83	=83	=83	=83	=83	=83	=83	=83	=83	=83	=83	=83	=83	=83	=83	=83
2r	.	1ryy	1ryy	2r	.	.	.	.	2ryy	.	.	.	.	.	.
!	!	!	!	!LO:N:acc=#	!	!	!	!	!	!	!	!	!	!	!
2C/	.	.	.	2enXi\	ach	ach	ach	ach	2gg\yy	ach	ach	ach	ach	ach	ach
=84	=84	=84	=84	=84	=84	=84	=84	=84	=84	=84	=84	=84	=84	=84	=84
2r	.	1ryy	1ryy	2r	.	.	.	.	2ryy	.	.	.	.	.	.
2A-X\	.	.	.	2c\	rze-	od-	la-	bez	2ee-\yy	ach	ach	ach	ach	ach	u-
=85	=85	=85	=85	=85	=85	=85	=85	=85	=85	=85	=85	=85	=85	=85	=85
!LO:SIC:v:s=1A-	!	!	!	!	!	!	!	!	!	!	!	!	!	!	!
1A	.	1ryy	1ryy	1c	-wli-	-ie-	-men-	utu-	(yy2ee-\yy	smu-	rosz-	rze-	o-	la-	-tu-
.	.	.	.	.	.	.	.	.	2ff\)yy	.	-ko-	-wli-	-die-	-men-	-le-
!LO:LB:g=original	!	!	!	!	!	!	!	!	!	!	!	!	!	!	!
=86	=86	=86	=86	=86	=86	=86	=86	=86	=86	=86	=86	=86	=86	=86	=86
!	!	!	!	!LO:N:acc=#	!	!	!	!	!	!	!	!	!	!	!
2G\	.	1ryy	1ryy	1BnXi	-wo	-to	-tuycie	-lenia	1ggyy	-tna	-szy	-wo	-to	-tuycie	-nia
2GG/	.	.	.	.	.	.	.	.	.	.	.	.	.	.	.
=87	=87	=87	=87	=87	=87	=87	=87	=87	=87	=87	=87	=87	=87	=87	=87
2r	.	1ryy	1ryy	2r	.	.	.	.	2ryy	.	.	.	.	.	.
!	!	!	!	!LO:N:acc=#	!	!	!	!	!	!	!	!	!	!	!
2GG/	.	.	.	2BnXi\	płacz-	y	ſlon-	Niech	2dd\yy	y	y	płacz-	y	Słon-	Niech
=88	=88	=88	=88	=88	=88	=88	=88	=88	=88	=88	=88	=88	=88	=88	=88
1C	.	1ryy	1ryy	1c	-cie	we-	-ce	y	1ee-yy	Wiel-	wiel-	-cie	We-	-ce	y
=89	=89	=89	=89	=89-	=89	=89	=89	=89	=89	=89	=89	=89	=89	=89	=89
2C/	.	1ryy	1ryy	2c\	Du-	-se-	Mie-	zy-	4ee-\yy	-kiey	-kiey	Du-	-ſe-	Mie-	Zy-
.	.	.	.	.	.	.	.	.	4ff\yy	.	.	.	.	.	.
4BB-/	.	.	.	2d\	-chy	-le	-siąc	-wioł	1gg\yy	za-	ra-	-chy	-le	-ſiąc	-wioł
4C/	.	.	.	.	.	.	.	.	.	.	.	.	.	.	.
=90	=90	=90	=90	=90	=90	=90	=90	=90	=90-	=90	=90	=90	=90	=90	=90
1D	.	1ryy	1ryy	1A	swie-	wzie-	gwia-	kaz-	.	.	.	.	.	.	.
.	.	.	.	.	.	.	.	.	2ff\yy	-ło-	-do-	Swie-	Swię-	Gwia-	Kaz-
=91	=91	=91	=91	=91	=91	=91	=91	=91	=91	=91	=91	=91	=91	=91	=91
!LO:TX:a:t=vi	!	!	!	!LO:N:acc=#	!	!	!	!	!	!	!	!	!	!	!
1GG	.	1ryy	1ryy	1BnXi	-te	-te	-zdy	-dy	1ggyy	-sci	-sci	-te	-te	-zdy	-dÿ
!LO:LB:g=original	!	!	!	!	!	!	!	!	!	!	!	!	!	!	!
=92:|!|:	=92:|!|:	=92:|!|:	=92:|!|:	=92:|!|:	=92:|!|:	=92:|!|:	=92:|!|:	=92:|!|:	=92:|!|:	=92:|!|:	=92:|!|:	=92:|!|:	=92:|!|:	=92:|!|:	=92:|!|:
!LO:TX:b:t=de	!	!	!	!LO:N:acc=#	!	!	!	!	!	!	!	!	!	!	!
2G\	.	1ryy	1ryy	2BnXi\	Płac-	.	Pła-	.	2dd\yy	Ley-	.	Płacz-	.	.	Płacz-
4G\	.	.	.	(8B\L	-cie	.	-cie	.	(y8dd\Lyy	-cie	.	-cie	.	.	-cie
.	.	.	.	8c\J)	.	.	.	.	8ee-\J)yy	.	.	.	.	.	.
4F\	.	.	.	(8d\L	przy	.	ſer-	.	(y8ff\Lyy	łzy	.	przy	.	.	ſer-
.	.	.	.	8c\J)	.	.	.	.	8ee-\J)yy	.	.	.	.	.	.
=93	=93	=93	=93	=93	=93	=93	=93	=93	=93	=93	=93	=93	=93	=93	=93
!	!	!	!	!LO:N:acc=#	!	!	!	!	!	!	!	!	!	!	!
2G\	.	1ryy	1ryy	2BnX\	smier-	.	-decz-	.	2dd\yy	goz-	.	ſmier-	.	.	-decz-
2G\	.	.	.	2B\	-ci	.	-nie	.	2dd\yy	-kie	.	-ci	.	.	-nie
=94	=94	=94	=94	=94	=94	=94	=94	=94	=94	=94	=94	=94	=94	=94	=94
4.E-\	.	1ryy	1ryy	4.e-X\	płac-	.	za-	.	4.gg\yy	płacz-	.	płacz-	.	.	za-
8E-\	.	.	.	8e-\	-cie	.	-mor-	.	8gg\yy	-cie	.	-cie	.	.	-mor-
!LO:LB:g=original	!	!	!	!	!	!	!	!	!	!	!	!	!	!	!
4F\	.	.	.	4f\	przy	.	-do-	.	4aa-X\yy	za-	.	przy	.	.	-do-
8G\L	.	.	.	4e-\	po-	.	-wa-	.	4gg\yy	-bi-	.	po-	.	.	-wa-
8A\J	.	.	.	.	.	.	.	.	.	.	.	.	.	.	.
=95	=95	=95	=95	=95	=95	=95	=95	=95	=95	=95	=95	=95	=95	=95	=95
4B-\	.	1ryy	1ryy	4d\	-grze-	.	-ne-	.	4ff\yy	-te-	.	-grze-	.	.	-ne-
4B-\	.	.	.	4d\	.	.	-go	.	4ff\yy	-go	.	-bie	.	.	-go
2E-\	.	.	.	2e-X\	-bie	.	ach	.	2gg\yy	Bo-	.	Bo-	.	.	ach
=96	=96	=96	=96	=96	=96	=96	=96	=96	=96	=96	=96	=96	=96	=96	=96
4A-X\	.	1ryy	1ryy	4c\	Bo-	.	ſy-	.	4ee-\yy	-ga	.	-ga	.	.	Sy-
4F\	.	.	.	8d\L	-ga	.	-na	.	8ff\Lyy	wa-	.	Na	.	.	-na
.	.	.	.	8c\J	.	.	.	.	8ee-\Jyy	.	.	.	.	.	Bo-
4G\	.	.	.	4c\	na	.	Bo-	.	2dd\yy	-ſze-	.	nie-	.	.	-ze-
4GG/	.	.	.	4B-\	Nie-	.	-ze-	.	.	.	.	.	.	.	.
=97	=97	=97	=97	=97	=97	=97	=97	=97	=97	=97	=97	=97	=97	=97	=97
!	!	!	!	!LO:TX:b:t=Vertatur C	!	!	!	!	!	!	!	!	!	!	!
1C	.	1ryy	1ryy	1c	-bie	.	-go	.	1cc;yy	-go	.	-bie	.	.	-go
!LO:LB:g=original	!	!	!LO:LB:g=original	!	!	!	!	!	!	!	!	!	!	!	!
=98:|!|:	=98:|!|:	=98||	=98||	=98:|!|:	=98:|!|:	=98:|!|:	=98:|!|:	=98:|!|:	=98:|!|:	=98:|!|:	=98:|!|:	=98:|!|:	=98:|!|:	=98:|!|:	=98:|!|:
*	*	*	*k[b-e-]	*	*	*	*	*	*	*	*	*	*	*	*
*M2/2	*	*M2/2	*M2/2	*M2/2	*	*	*	*	*M2/2	*	*	*	*	*	*
*met(c|)	*	*met(c|)	*met(c|)	*met(c|)	*	*	*	*	*met(c|)	*	*	*	*	*	*
!	!	!	!LO:TX:t=P:znaki:problem= e- pod ee-	!	!	!	!	!	!	!	!	!	!	!	!
!LO:TX:b:t=Symhonia	!	!	!LO:TX:b:t=Sÿmphonia. a3.	!LO:TX:a:t=Sympho Tacet	!	!	!	!	!LO:TX:a:t=Simpho(nia) tacet	!	!	!	!	!	!
2C/	.	2ee-\	2gg\	1ryy	.	.	.	.	1ryy	.	.	.	.	.	.
4E-\	.	4ee-\	4gg\	.	.	.	.	.	.	.	.	.	.	.	.
!	!	!LO:N:acc=#	!	!	!	!	!	!	!	!	!	!	!	!	!
4G\	.	4bnX/	4dd\	.	.	.	.	.	.	.	.	.	.	.	.
=99	=99	=99	=99	=99	=99	=99	=99	=99	=99	=99	=99	=99	=99	=99	=99
2A-X\	x 76	2.cc\	4ee-\	1ryy	.	.	.	.	1ryy	.	.	.	.	.	.
.	.	.	4ff\	.	.	.	.	.	.	.	.	.	.	.	.
2G\	.	.	2gg\	.	.	.	.	.	.	.	.	.	.	.	.
!	!	!LO:N:acc=#	!	!	!	!	!	!	!	!	!	!	!	!	!
.	.	4bnX/	.	.	.	.	.	.	.	.	.	.	.	.	.
!	!	!LO:LB:g=original	!	!	!	!	!	!	!	!	!	!	!	!	!
=100	=100	=100	=100	=100	=100	=100	=100	=100	=100	=100	=100	=100	=100	=100	=100
4.E-\	.	4.gg\	4.bb-\	1ryy	.	.	.	.	1ryy	.	.	.	.	.	.
8E-\	.	8gg\	8bb-\	.	.	.	.	.	.	.	.	.	.	.	.
4F\	.	4ff\	4aa-X\	.	.	.	.	.	.	.	.	.	.	.	.
8G\L	.	4ee-\	4gg\	.	.	.	.	.	.	.	.	.	.	.	.
8A-X\J	.	.	.	.	.	.	.	.	.	.	.	.	.	.	.
=101	=101	=101	=101	=101	=101	=101	=101	=101	=101	=101	=101	=101	=101	=101	=101
4B-\	.	4dd\	4ff\	1ryy	.	.	.	.	1ryy	.	.	.	.	.	.
4B-\	.	4dd\	4ff\	.	.	.	.	.	.	.	.	.	.	.	.
4.BB-/	.	4.dd\	4.ff\	.	.	.	.	.	.	.	.	.	.	.	.
8BB-/	.	8dd\	8ff\	.	.	.	.	.	.	.	.	.	.	.	.
=102	=102	=102	=102	=102	=102	=102	=102	=102	=102	=102	=102	=102	=102	=102	=102
4C/	.	4cc\	4ee-\	1ryy	.	.	.	.	1ryy	.	.	.	.	.	.
8D\L	.	4b-/	4dd\	.	.	.	.	.	.	.	.	.	.	.	.
8E-\J	.	.	.	.	.	.	.	.	.	.	.	.	.	.	.
4F\	.	4a/	4cc\	.	.	.	.	.	.	.	.	.	.	.	.
4F\	x n	4a/	4cc\	.	.	.	.	.	.	.	.	.	.	.	.
=103	=103	=103	=103	=103	=103	=103	=103	=103	=103	=103	=103	=103	=103	=103	=103
4.C/	.	4.ee-\	4.gg\	1ryy	.	.	.	.	1ryy	.	.	.	.	.	.
8C/	.	8ee-\	8gg\	.	.	.	.	.	.	.	.	.	.	.	.
4D\	.	4dd\	4ff\	.	.	.	.	.	.	.	.	.	.	.	.
8E-\L	.	4cc\	4ee-\	.	.	.	.	.	.	.	.	.	.	.	.
8F\J	.	.	.	.	.	.	.	.	.	.	.	.	.	.	.
=104	=104	=104	=104	=104	=104	=104	=104	=104	=104	=104	=104	=104	=104	=104	=104
!	!	!LO:N:acc=#	!	!	!	!	!	!	!	!	!	!	!	!	!
4G\	.	4bnX/	4dd\	1ryy	.	.	.	.	1ryy	.	.	.	.	.	.
4G\	x n	4bny/	4dd\	.	.	.	.	.	.	.	.	.	.	.	.
!LO:LB:g=original	!	!	!	!	!	!	!	!	!	!	!	!	!	!	!
4.E-\	.	4gg\	4.bb-\	.	.	.	.	.	.	.	.	.	.	.	.
.	.	4gg\	.	.	.	.	.	.	.	.	.	.	.	.	.
8E-\	.	.	8bb-\	.	.	.	.	.	.	.	.	.	.	.	.
!	!	!	!LO:PB:g=original	!	!	!	!	!	!	!	!	!	!	!	!
=105	=105	=105	=105	=105	=105	=105	=105	=105	=105	=105	=105	=105	=105	=105	=105
4F\	.	4ff\	4aa-Xi\	1ryy	.	.	.	.	1ryy	.	.	.	.	.	.
8G\L	.	4ee-\	4gg\	.	.	.	.	.	.	.	.	.	.	.	.
8A-X\J	.	.	.	.	.	.	.	.	.	.	.	.	.	.	.
4B-\	.	4dd\	4ff\	.	.	.	.	.	.	.	.	.	.	.	.
4B-\	.	4dd\	4ff\	.	.	.	.	.	.	.	.	.	.	.	.
=106	=106	=106	=106	=106	=106	=106	=106	=106	=106	=106	=106	=106	=106	=106	=106
4.B-\	.	4.dd\	4.ff\	1ryy	.	.	.	.	1ryy	.	.	.	.	.	.
8A\	.	8dd\	8ff\	.	.	.	.	.	.	.	.	.	.	.	.
4G\	.	4gg\	4gg\	.	.	.	.	.	.	.	.	.	.	.	.
8BB-/L	x 6	4gg\	4bb-\	.	.	.	.	.	.	.	.	.	.	.	.
8C/J	.	.	.	.	.	.	.	.	.	.	.	.	.	.	.
=107	=107	=107	=107	=107	=107	=107	=107	=107	=107	=107	=107	=107	=107	=107	=107
2D/	x 43	4gg\	2aa\	1ryy	.	.	.	.	1ryy	.	.	.	.	.	.
.	.	4ff#X\	.	.	.	.	.	.	.	.	.	.	.	.	.
2GG/	.	2gg\	2gg\	.	.	.	.	.	.	.	.	.	.	.	.
!	!	!LO:PB:g=original	!	!	!	!	!	!	!	!	!	!	!	!	!
=108:|!|:	=108:|!|:	=108:|!|:	=108:|!|:	=108:|!|:	=108:|!|:	=108:|!|:	=108:|!|:	=108:|!|:	=108:|!|:	=108:|!|:	=108:|!|:	=108:|!|:	=108:|!|:	=108:|!|:	=108:|!|:
2F\	.	4.b-/	4.dd\	1ryy	.	.	.	.	1ryy	.	.	.	.	.	.
.	.	8a/	8cc\	.	.	.	.	.	.	.	.	.	.	.	.
4G\	.	8r	8r	.	.	.	.	.	.	.	.	.	.	.	.
.	.	8g/L	8b-\L	.	.	.	.	.	.	.	.	.	.	.	.
4F\	.	8a/	8cc\	.	.	.	.	.	.	.	.	.	.	.	.
.	.	8b-/J	8dd\J	.	.	.	.	.	.	.	.	.	.	.	.
=109	=109	=109	=109	=109	=109	=109	=109	=109	=109	=109	=109	=109	=109	=109	=109
2E-\	.	(8ee-\L	(8gg\L	1ryy	.	.	.	.	1ryy	.	.	.	.	.	.
.	.	8dd\)	8ff\J)	.	.	.	.	.	.	.	.	.	.	.	.
.	.	(8cc\	(8ee-\L	.	.	.	.	.	.	.	.	.	.	.	.
.	.	8b-\J)	8dd\J)	.	.	.	.	.	.	.	.	.	.	.	.
4F\	.	4b-/	2cc\	.	.	.	.	.	.	.	.	.	.	.	.
4FF/	x 43	4a/	.	.	.	.	.	.	.	.	.	.	.	.	.
=110	=110	=110	=110	=110	=110	=110	=110	=110	=110	=110	=110	=110	=110	=110	=110
4BB-/	.	8b-/L	(8dd\L	1ryy	.	.	.	.	1ryy	.	.	.	.	.	.
.	.	8a/J	8cc\J)	.	.	.	.	.	.	.	.	.	.	.	.
4E-\	.	8g/L	8b-\L	.	.	.	.	.	.	.	.	.	.	.	.
.	.	16a/L	16cc\L	.	.	.	.	.	.	.	.	.	.	.	.
.	.	16b-/JJ	16dd\JJ	.	.	.	.	.	.	.	.	.	.	.	.
4C/	.	(8cc\L	(8ee-\L	.	.	.	.	.	.	.	.	.	.	.	.
.	.	8b-\J)	8dd\J)	.	.	.	.	.	.	.	.	.	.	.	.
4F\	x n	8a/L	8cc\L	.	.	.	.	.	.	.	.	.	.	.	.
.	.	8a/J	8cc\J	.	.	.	.	.	.	.	.	.	.	.	.
!	!	!	!LO:LB:g=original	!	!	!	!	!	!	!	!	!	!	!	!
=111	=111	=111	=111	=111	=111	=111	=111	=111	=111	=111	=111	=111	=111	=111	=111
4D\	.	8dd\L	8ff\L	1ryy	.	.	.	.	1ryy	.	.	.	.	.	.
.	.	8cc\J	8ee-\J	.	.	.	.	.	.	.	.	.	.	.	.
*	*	*Xtuplet	*	*	*	*	*	*	*	*	*	*	*	*	*
!LO:LB:g=original	!	!	!	!	!	!	!	!	!	!	!	!	!	!	!
4G\	.	12b-\L	8dd\L	.	.	.	.	.	.	.	.	.	.	.	.
.	.	12cc\	.	.	.	.	.	.	.	.	.	.	.	.	.
.	.	.	16ee-\L	.	.	.	.	.	.	.	.	.	.	.	.
.	.	12dd\J	.	.	.	.	.	.	.	.	.	.	.	.	.
.	.	.	16ff\JJ	.	.	.	.	.	.	.	.	.	.	.	.
4E-\	.	(8ee-\L	(8gg\L	.	.	.	.	.	.	.	.	.	.	.	.
.	.	8dd\J)	8ff\J)	.	.	.	.	.	.	.	.	.	.	.	.
4A-X\	.	(8cc\L	(8ee-\L	.	.	.	.	.	.	.	.	.	.	.	.
.	.	8cc\J)	8ee-\J)	.	.	.	.	.	.	.	.	.	.	.	.
=112	=112	=112	=112	=112	=112	=112	=112	=112	=112	=112	=112	=112	=112	=112	=112
!	!	!LO:N:vis=16	!	!	!	!	!	!	!	!	!	!	!	!	!
4F\	.	(8dd\L	16ff\LL	1ryy	.	.	.	.	1ryy	.	.	.	.	.	.
.	.	.	16gg\	.	.	.	.	.	.	.	.	.	.	.	.
!	!	!LO:N:vis=16	!	!	!	!	!	!	!	!	!	!	!	!	!
.	.	8ee-\J)	16ff\	.	.	.	.	.	.	.	.	.	.	.	.
.	.	.	16ee-\JJ	.	.	.	.	.	.	.	.	.	.	.	.
!	!	!LO:N:vis=16	!	!	!	!	!	!	!	!	!	!	!	!	!
8G\L	x n	(8dd\L	8dd\L	.	.	.	.	.	.	.	.	.	.	.	.
!	!	!LO:N:vis=16	!	!	!	!	!	!	!	!	!	!	!	!	!
8C\J	.	8cc\J)	8ee-\J	.	.	.	.	.	.	.	.	.	.	.	.
4G\	.	4cc\	2dd\	.	.	.	.	.	.	.	.	.	.	.	.
4GG/	x 43	4b-\	.	.	.	.	.	.	.	.	.	.	.	.	.
=113	=113	=113	=113	=113	=113	=113	=113	=113	=113	=113	=113	=113	=113	=113	=113
4C/	.	8.cc\L	8.ee-\L	1ryy	.	.	.	.	1ryy	.	.	.	.	.	.
.	.	16b-\KJ	16dd\KJ	.	.	.	.	.	.	.	.	.	.	.	.
4F\	.	8a/L	(8cc\L	.	.	.	.	.	.	.	.	.	.	.	.
.	.	8a/J	8cc\J)	.	.	.	.	.	.	.	.	.	.	.	.
4D\	.	8.dd\L	8.ff\L	.	.	.	.	.	.	.	.	.	.	.	.
.	.	16cc\KJ	16ee-\Jk	.	.	.	.	.	.	.	.	.	.	.	.
!	!	!LO:LB:g=original	!	!	!	!	!	!	!	!	!	!	!	!	!
4G\	.	8b-/L	4dd\	.	.	.	.	.	.	.	.	.	.	.	.
.	.	8b-/J	.	.	.	.	.	.	.	.	.	.	.	.	.
=114	=114	=114	=114	=114	=114	=114	=114	=114	=114	=114	=114	=114	=114	=114	=114
4E-\	.	8.ee-\L	8.gg\L	1ryy	.	.	.	.	1ryy	.	.	.	.	.	.
.	.	16dd\KJ	16ff\Jk	.	.	.	.	.	.	.	.	.	.	.	.
4A-X\	.	8cc\L	4ee-\	.	.	.	.	.	.	.	.	.	.	.	.
.	.	8cc\J	.	.	.	.	.	.	.	.	.	.	.	.	.
4F\	.	8.ff\L	8.aa-X\L	.	.	.	.	.	.	.	.	.	.	.	.
.	.	16ff\KJ	16gg\Jk	.	.	.	.	.	.	.	.	.	.	.	.
4B-\	.	8.dd\L	4ff\	.	.	.	.	.	.	.	.	.	.	.	.
.	.	16dd\Jk	.	.	.	.	.	.	.	.	.	.	.	.	.
=115	=115	=115	=115	=115	=115	=115	=115	=115	=115	=115	=115	=115	=115	=115	=115
4G\	.	8.gg\L	8.bb-\L	1ryy	.	.	.	.	1ryy	.	.	.	.	.	.
.	.	16ff\KJ	16aa-Xi\KJ	.	.	.	.	.	.	.	.	.	.	.	.
4c\	.	8ee-\L	8.aa-\L	.	.	.	.	.	.	.	.	.	.	.	.
.	.	8ee-\J	.	.	.	.	.	.	.	.	.	.	.	.	.
.	.	.	16gg\Jk	.	.	.	.	.	.	.	.	.	.	.	.
4F\	.	8.ff\L	8.ff\L	.	.	.	.	.	.	.	.	.	.	.	.
.	.	16ee-\KJ	16ff\KJ	.	.	.	.	.	.	.	.	.	.	.	.
4BB-/	.	8dd\L	8.gg\L	.	.	.	.	.	.	.	.	.	.	.	.
.	.	8dd\J	.	.	.	.	.	.	.	.	.	.	.	.	.
.	.	.	16ff\Jk	.	.	.	.	.	.	.	.	.	.	.	.
=116	=116	=116	=116	=116	=116	=116	=116	=116	=116	=116	=116	=116	=116	=116	=116
4E-\	.	8.ee-\L	4ee-\	1ryy	.	.	.	.	1ryy	.	.	.	.	.	.
.	.	16dd\KJ	.	.	.	.	.	.	.	.	.	.	.	.	.
4A-X\	.	8cc\L	8ff\L	.	.	.	.	.	.	.	.	.	.	.	.
.	.	8cc\J	8ee-\J	.	.	.	.	.	.	.	.	.	.	.	.
4F\	6 5	8dd\L	2dd\	.	.	.	.	.	.	.	.	.	.	.	.
.	.	8cc\J	.	.	.	.	.	.	.	.	.	.	.	.	.
4G\	x 43	8cc\L	.	.	.	.	.	.	.	.	.	.	.	.	.
!	!	!LO:N:acc=#	!	!	!	!	!	!	!	!	!	!	!	!	!
.	.	8bnX\J	.	.	.	.	.	.	.	.	.	.	.	.	.
!	!	!	!LO:LB:g=original	!	!	!	!	!	!	!	!	!	!	!	!
=117	=117	=117	=117	=117	=117	=117	=117	=117	=117	=117	=117	=117	=117	=117	=117
4C/	.	4cc\	4cc\	1ryy	.	.	.	.	1ryy	.	.	.	.	.	.
8r	.	8r	8r	.	.	.	.	.	.	.	.	.	.	.	.
8C/	.	8cc\	8cc\	.	.	.	.	.	.	.	.	.	.	.	.
2GG/	.	4cc\	2dd\	.	.	.	.	.	.	.	.	.	.	.	.
!	!	!LO:N:acc=#	!	!	!	!	!	!	!	!	!	!	!	!	!
.	.	4bnXi\	.	.	.	.	.	.	.	.	.	.	.	.	.
=118	=118	=118	=118	=118	=118	=118	=118	=118	=118	=118	=118	=118	=118	=118	=118
1C	.	1cc	1cc	1ryy	.	.	.	.	1ryy	.	.	.	.	.	.
!LO:LB:g=original	!	!	!	!	!	!	!	!	!	!	!	!	!	!	!
=119:|!|:	=119:|!|:	=119||	=119:|!|:	=119:|!|:	=119:|!|:	=119:|!|:	=119:|!|:	=119:|!|:	=119:|!|:	=119:|!|:	=119:|!|:	=119:|!|:	=119:|!|:	=119:|!|:	=119:|!|:
!LO:TX:b:t=Płacz sliczne Niebo	!	!	!	!	!	!	!	!	!	!	!	!	!	!	!
!	!	!LO:TX:a:t=Płacz ſliczne\nniebo\nTacet	!LO:TX:a:t=Płaczliwe\nniebo Tacet	!	!	!	!	!	!LO:N:vis=1.	!	!	!	!	!	!
[y1c	.	1ryy	1ryy	1e-Xyy	Płacz	Wa-	Płacz	Płacz-	[y1ggyy	Noc	Niech	Płacz	Wa-	Płacz	Placz-
=120	=120	=120	=120	=120	=120	=120	=120	=120	=120	=120	=120	=120	=120	=120	=120
!LO:N:vis=4:xstem:cue	!	!	!	!LO:SIC:v:s=2e-\	!	!	!	!	!LO:N:vis=4:xstem:cue	!	!	!	!	!	!
2c\]	.	1ryy	1ryy	2e\yy	wſze	-ſza	slicz-	-cie	2gg\]yy	.	.	.	.	.	.
2B-\	.	.	.	2d\yy	ſtwo-	dzis	-ne	pła-	2gg\yy	na-	cie	wſze	-ſza	Slicz-	-cie
=121	=121	=121	=121	=121	=121	=121	=121	=121	=121	=121	=121	=121	=121	=121	=121
1A-X	.	1ryy	1ryy	[y1cyy	-rze-	ra-	nie-	-ne-	(y2gg\yy	-sta-	lu-	ſtwo-	dzis	-ne	pła-
.	.	.	.	.	.	.	.	.	2ff\yy)	.	.	-rze-	ra-	nie-	-nę-
=122	=122	=122	=122	=122-	=122	=122	=122	=122	=122	=122	=122	=122	=122	=122	=122
!	!	!	!	!LO:N:vis=4:xstem:cue	!	!	!	!	!	!	!	!	!	!	!
1G	.	1ryy	1ryy	2c\]]yy	.	.	.	.	1ggyy	-ie	-dzie	-nie,	-dosc,	-bo,	-ty,
!	!	!	!	!LO:SIC:v:s=2Bn\	!	!	!	!	!	!	!	!	!	!	!
.	.	.	.	2B-\yy	-nie	-dosc	-bo	-ty	.	.	.	.	.	.	.
=123	=123	=123	=123	=123	=123	=123	=123	=123	=123	=123	=123	=123	=123	=123	=123
2r	.	1ryy	1ryy	2ryy	.	.	.	.	2ryy	.	.	.	.	.	.
!	!	!	!	!LO:N:acc=#	!	!	!	!	!	!	!	!	!	!	!
2C/	.	.	.	2enX\yy	ach	ach	ach	ach	2gg\yy	ach	ach	ach	ach	ach	ach
=124	=124	=124	=124	=124	=124	=124	=124	=124	=124	=124	=124	=124	=124	=124	=124
2r	.	1ryy	1ryy	2ryy	.	.	.	.	2ryy	.	.	.	.	.	.
2A\	.	.	.	2c\yy	rze-	od-	la-	bez	2ee-\yy	ach	ach	ach	ach	ach	u-
=125	=125	=125	=125	=125	=125	=125	=125	=125	=125	=125	=125	=125	=125	=125	=125
1A	.	1ryy	1ryy	1cyy	-wli-	-ie-	-men-	utu-	(y2ee-\yy	smu-	rosz-	rze-	o-	la-	-tu-
.	.	.	.	.	.	.	.	.	2ff\)yy	.	-ko-	-wli-	-die-	-men-	-le-
=126	=126	=126	=126	=126	=126	=126	=126	=126	=126	=126	=126	=126	=126	=126	=126
!	!	!	!	!LO:N:acc=#	!	!	!	!	!	!	!	!	!	!	!
2G\	.	1ryy	1ryy	1BnXyyi	-wo	-to	-tuycie	-lenia	1ggyy	-tna	-szy	-wo	-to	-tuycie	-nia
2GG/	.	.	.	.	.	.	.	.	.	.	.	.	.	.	.
=127	=127	=127	=127	=127	=127	=127	=127	=127	=127	=127	=127	=127	=127	=127	=127
2r	.	1ryy	1ryy	2ryy	.	.	.	.	2ryy	.	.	.	.	.	.
!	!	!	!	!LO:N:acc=#	!	!	!	!	!	!	!	!	!	!	!
2GG/	.	.	.	2BnX\yyi	płacz-	y	ſlon-	Niech	2dd\yy	y	y	płacz-	y	Słon-	Niech
=128	=128	=128	=128	=128	=128	=128	=128	=128	=128	=128	=128	=128	=128	=128	=128
1C	.	1ryy	1ryy	1cyy	-cie	we-	-nce	y	1ee-yy	Wiel-	wiel-	-cie	We-	-ce	y
=129	=129	=129	=129	=129-	=129	=129	=129	=129	=129	=129	=129	=129	=129	=129	=129
2C/	.	1ryy	1ryy	2c\yy	Du-	-se-	Mie-	zy-	4ee-\yy	-kiey	-kiey	Du-	-se-	Mie-	Zy-
.	.	.	.	.	.	.	.	.	4ff\yy	.	.	.	.	.	.
4BB-/	.	.	.	2d\yy	-chy	-le	-siąc	-wioł	1gg\yy	za-	ra-	-chy	-le	-ſiąc	-wioł
4C/	.	.	.	.	.	.	.	.	.	.	.	.	.	.	.
=130	=130	=130	=130	=130	=130	=130	=130	=130	=130-	=130	=130	=130	=130	=130	=130
1D	.	1ryy	1ryy	1Ayy	swie-	wzie-	gwia-	kaz-	.	.	.	.	.	.	.
.	.	.	.	.	.	.	.	.	2ff\yy	-ło-	-do-	Swie-	Swię-	Gwia-	Kaz-
=131	=131	=131	=131	=131	=131	=131	=131	=131	=131	=131	=131	=131	=131	=131	=131
!	!	!	!	!LO:N:acc=#	!	!	!	!	!	!	!	!	!	!	!
1GG	.	1ryy	1ryy	1BnXyyi	-te	-te	-zdy	-dy	1ggyy	-sci	-sci	-te	-te	-zdy	-dÿ
!LO:LB:g=original	!	!	!	!	!	!	!	!	!	!	!	!	!	!	!
=132:|!|:	=132:|!|:	=132:|!|:	=132:|!|:	=132:|!|:	=132:|!|:	=132:|!|:	=132:|!|:	=132:|!|:	=132:|!|:	=132:|!|:	=132:|!|:	=132:|!|:	=132:|!|:	=132:|!|:	=132:|!|:
!	!	!	!	!LO:N:acc=#	!	!	!	!	!	!	!	!	!	!	!
2G\	.	1ryy	1ryy	2BnX\yyi	Płac-	.	Pła-	.	2dd\yy	Ley-	.	Płacz-	.	.	Płacz-
4G\	.	.	.	(y8B\Lyy	-cie	.	-cie	.	(y8dd\Lyy	-cie	.	-cie	.	.	-cie
.	.	.	.	8c\J)yy	.	.	.	.	8ee-\J)yy	.	.	.	.	.	.
4F\	.	.	.	(y8d\Lyy	przy	.	ſer-	.	(y8ff\Lyy	łzy	.	przy	.	.	ſer-
.	.	.	.	8c\J)yy	.	.	.	.	8ee-\J)yy	.	.	.	.	.	.
=133	=133	=133	=133	=133	=133	=133	=133	=133	=133	=133	=133	=133	=133	=133	=133
!	!	!	!	!LO:N:acc=#	!	!	!	!	!	!	!	!	!	!	!
2G\	.	1ryy	1ryy	2BnX\yy	smier-	.	-decz-	.	2dd\yy	gorz-	.	ſmier-	.	.	-decz-
2G\	.	.	.	2B\yy	-ci	.	-nie	.	2dd\yy	-kie	.	-ci	.	.	-nie
=134	=134	=134	=134	=134	=134	=134	=134	=134	=134	=134	=134	=134	=134	=134	=134
4.E-\	.	1ryy	1ryy	4.e-X\yy	płac-	.	za-	.	4.gg\yy	płacz-	.	płacz-	.	.	za-
.	x -	.	.	.	.	.	.	.	.	.	.	.	.	.	.
8E-\	.	.	.	8e-\yy	-cie	.	-mor-	.	8gg\yy	-cie	.	-cie	.	.	-mor-
4F\	.	.	.	4f\yy	przy	.	-do-	.	4aa-X\yy	za-	.	przy	.	.	-do-
8G\L	.	.	.	4e-\yy	po-	.	-wa-	.	4gg\yy	-bi-	.	po-	.	.	-wa-
8A-X\J	.	.	.	.	.	.	.	.	.	.	.	.	.	.	.
=135	=135	=135	=135	=135	=135	=135	=135	=135	=135	=135	=135	=135	=135	=135	=135
4B-\	.	1ryy	1ryy	4d\yy	-grze-	.	-ne-	.	4ff\yy	-te-	.	-grze-	.	.	-ne-
4B-\	.	.	.	4d\yy	.	.	-go	.	4ff\yy	-go	.	-bie	.	.	-go
2E-\	.	.	.	2e-X\yy	-bie	.	ach	.	2gg\yy	Bo-	.	Bo-	.	.	ach
=136	=136	=136	=136	=136	=136	=136	=136	=136	=136	=136	=136	=136	=136	=136	=136
4A-X\	.	1ryy	1ryy	4c\yy	Bo-	.	ſy-	.	4ee-\yy	-ga	.	-ga	.	.	Sy-
4F\	.	.	.	8d\Lyy	-ga	.	-na	.	8ff\Lyy	wa-	.	Na	.	.	-na
.	.	.	.	8c\Jyy	.	.	.	.	8ee-\Jyy	.	.	.	.	.	Bo-
4G\	.	.	.	4c\yy	na	.	Bo-	.	2dd\yy	-ſze-	.	nie-	.	.	-ze-
4GG/	.	.	.	4B-\yy	Nie-	.	-ze-	.	.	.	.	.	.	.	.
=137	=137	=137	=137	=137	=137	=137	=137	=137	=137	=137	=137	=137	=137	=137	=137
1C	.	1ryy	1ryy	1cyy	-bie	.	-go	.	1cc;yy	-go	.	-bie	.	.	-go
=:|!	=:|!	=:|!	=||	=:|!	=:|!	=:|!	=:|!	=:|!	=:|!	=:|!	=:|!	=:|!	=:|!	=:|!	=:|!
*-	*-	*-	*-	*-	*-	*-	*-	*-	*-	*-	*-	*-	*-	*-	*-
!!!system-decoration: [g1][g2]g3
!!!RDF**kern: > = above
!!!RDF**kern: < = below
!!!RDF**kern: i = editorial accidental
!!!ENC: Katarzyna Serwa
!!!END: 2021-12-30
!!!ENC: Andrzej Gręziak
!!!END: 2021-01-05
